X:1
T:Ned Coleman's
M:6/8
L:1/8
R:jig
F:Catskills+Tunes.txt
K:Gmaj
D:Willie Kelly (Tue AM)
D |:\
GEG EDE | GAB ~d3 | ((3 efg) e dge | dBA GED |\
~G3 EDE | GAB ~d3 | ((3 efg) e dge |1 dBA G2 D :|2 dBA G ((3 B^cd) ||
|:\
~g3 edB | dBA GED | DGG EDE | GAB d3 |\
~g3 edB | dBA GED | GEG EGB |1 dBA G ((3 B^cd) :|2 dBA G3 |]
